X:1
T:Bigben modified
M:3/4
L:1/8
Q:1/4=100
K:C
c2 e2 d2 | G6 | G2 d2 e2 | c6 |
e2c2d2|G6|G2d2e2|c6|
c e d G3 G d e c3| e c d G3 G d e c3|cedG3Gdec3|
ecdG3Gdec3| c2 z c c2- |c2zcc2-|c6|
